packages/assets/static/images/icons/file-jpg.svg

<svg width="24" height="24" viewBox="0 0 24 24" xmlns="http://www.w3.org/2000/svg">
<path d="M11.8124 13.8755H10.3124C10.0141 13.8755 9.72792 13.994 9.51694 14.205C9.30597 14.416 9.18744 14.7021 9.18744 15.0005V20.2505C9.18744 20.5489 9.30597 20.835 9.51694 21.046C9.72792 21.257 10.0141 21.3755 10.3124 21.3755C10.6108 21.3755 10.897 21.257 11.1079 21.046C11.3189 20.835 11.4374 20.5489 11.4374 20.2505V19.8755H11.8124C12.6081 19.8755 13.3712 19.5594 13.9338 18.9968C14.4964 18.4342 14.8124 17.6711 14.8124 16.8755C14.8124 16.0798 14.4964 15.3168 13.9338 14.7542C13.3712 14.1916 12.6081 13.8755 11.8124 13.8755ZM11.8124 17.6255H11.4374V16.1255H11.8124C12.0114 16.1255 12.2021 16.2045 12.3428 16.3452C12.4834 16.4858 12.5624 16.6766 12.5624 16.8755C12.5624 17.0744 12.4834 17.2652 12.3428 17.4058C12.2021 17.5465 12.0114 17.6255 11.8124 17.6255ZM21.5624 19.5821C21.5625 19.872 21.4507 20.1507 21.2503 20.3602C20.9543 20.6781 20.5964 20.9321 20.1987 21.1067C19.801 21.2813 19.3718 21.3728 18.9374 21.3755C17.0765 21.3755 15.5624 19.6936 15.5624 17.6255C15.5624 15.5574 17.0765 13.8755 18.9374 13.8755C19.5633 13.8773 20.1743 14.0667 20.6915 14.4192C20.8176 14.5002 20.9262 14.6056 21.011 14.7292C21.0958 14.8528 21.1551 14.992 21.1853 15.1388C21.2155 15.2856 21.2161 15.437 21.187 15.584C21.158 15.731 21.0998 15.8707 21.016 15.995C20.9322 16.1192 20.8244 16.2254 20.6989 16.3074C20.5735 16.3894 20.4329 16.4455 20.2855 16.4724C20.1381 16.4994 19.9867 16.4966 19.8404 16.4642C19.6941 16.4318 19.5557 16.3705 19.4334 16.2839C19.2878 16.1823 19.1149 16.1271 18.9374 16.1255C18.3281 16.1255 17.8124 16.8127 17.8124 17.6255C17.8124 18.4383 18.3281 19.1255 18.9374 19.1255C19.0233 19.1253 19.1087 19.112 19.1906 19.0861C19.0562 18.9212 18.9713 18.7215 18.9458 18.5103C18.9203 18.2991 18.9552 18.085 19.0465 17.8928C19.1378 17.7007 19.2817 17.5383 19.4615 17.4246C19.6413 17.3109 19.8497 17.2505 20.0624 17.2505H20.4374C20.7358 17.2505 21.022 17.369 21.2329 17.58C21.4439 17.791 21.5624 18.0771 21.5624 18.3755V19.5821ZM8.06244 15.0005V18.563C8.06244 19.3089 7.76612 20.0243 7.23868 20.5517C6.71123 21.0792 5.99586 21.3755 5.24994 21.3755C4.50402 21.3755 3.78865 21.0792 3.2612 20.5517C2.73376 20.0243 2.43744 19.3089 2.43744 18.563C2.43744 18.2646 2.55597 17.9785 2.76694 17.7675C2.97792 17.5565 3.26407 17.438 3.56244 17.438C3.86081 17.438 4.14696 17.5565 4.35793 17.7675C4.56891 17.9785 4.68744 18.2646 4.68744 18.563C4.68744 18.7122 4.7467 18.8552 4.85219 18.9607C4.95768 19.0662 5.10075 19.1255 5.24994 19.1255C5.39912 19.1255 5.5422 19.0662 5.64769 18.9607C5.75318 18.8552 5.81244 18.7122 5.81244 18.563V15.0005C5.81244 14.7021 5.93097 14.416 6.14194 14.205C6.35292 13.994 6.63907 13.8755 6.93744 13.8755C7.23581 13.8755 7.52196 13.994 7.73293 14.205C7.94391 14.416 8.06244 14.7021 8.06244 15.0005ZM5.06244 12.0005C5.36081 12.0005 5.64696 11.882 5.85793 11.671C6.06891 11.46 6.18744 11.1739 6.18744 10.8755V4.87549H13.3124V9.37549C13.3124 9.67386 13.431 9.96001 13.6419 10.171C13.8529 10.382 14.1391 10.5005 14.4374 10.5005H18.9374V10.8755C18.9374 11.1739 19.056 11.46 19.2669 11.671C19.4779 11.882 19.7641 12.0005 20.0624 12.0005C20.3608 12.0005 20.647 11.882 20.8579 11.671C21.0689 11.46 21.1874 11.1739 21.1874 10.8755V9.00049C21.1874 8.70235 21.0691 8.41642 20.8584 8.20549L15.6084 2.95549C15.5039 2.85088 15.3798 2.76789 15.2433 2.71127C15.1067 2.65464 14.9603 2.6255 14.8124 2.62549H5.81244C5.31516 2.62549 4.83824 2.82303 4.48661 3.17466C4.13498 3.52629 3.93744 4.00321 3.93744 4.50049V10.8755C3.93744 11.1739 4.05597 11.46 4.26694 11.671C4.47792 11.882 4.76407 12.0005 5.06244 12.0005ZM15.5624 6.09424L17.7187 8.25049H15.5624V6.09424Z"/>
</svg>

<svg viewBox="0 0 24 24" xmlns="http://www.w3.org/2000/svg" aria-hidden="true" fill="currentColor" height="24px" width="24px"><path d="M11.812 13.876h-1.5A1.125 1.125 0 0 0 9.187 15v5.25a1.125 1.125 0 0 0 2.25 0v-.376h.375a3 3 0 1 0 0-6m0 3.75h-.375v-1.5h.375a.75.75 0 1 1 0 1.5m9.75 1.956c0 .29-.111.569-.312.778a3.19 3.19 0 0 1-2.313 1.015c-1.86 0-3.375-1.681-3.375-3.75s1.515-3.75 3.375-3.75a3.13 3.13 0 0 1 1.755.544 1.124 1.124 0 1 1-1.259 1.865.9.9 0 0 0-.496-.159c-.609 0-1.125.688-1.125 1.5s.516 1.5 1.125 1.5a.9.9 0 0 0 .254-.039 1.125 1.125 0 0 1 .871-1.835h.375a1.125 1.125 0 0 1 1.125 1.124zm-13.5-4.581v3.562a2.812 2.812 0 1 1-5.625 0 1.125 1.125 0 0 1 2.25 0 .562.562 0 1 0 1.125 0v-3.562a1.125 1.125 0 0 1 2.25 0m-3-3a1.125 1.125 0 0 0 1.125-1.125v-6h7.125v4.5a1.125 1.125 0 0 0 1.125 1.125h4.5v.375a1.125 1.125 0 0 0 2.25 0V9c0-.298-.118-.584-.329-.795l-5.25-5.25a1.13 1.13 0 0 0-.796-.33h-9A1.875 1.875 0 0 0 3.937 4.5v6.376A1.125 1.125 0 0 0 5.062 12m10.5-5.907L17.72 8.25h-2.157z"/></svg>
